public/lightgit.svg

<svg width="100" height="98" viewBox="0 0 100 98" fill="none" xmlns="http://www.w3.org/2000/svg">
<path d="M50 0C22.375 0 0 22.375 0 50C0 72.125 14.3125 90.8125 34.1875 97.4375C36.6875 97.875 37.625 96.375 37.625 95.0625C37.625 93.875 37.5625 89.9375 37.5625 85.75C25 88.0625 21.75 82.6875 20.75 79.875C20.1875 78.4375 17.75 74 15.625 72.8125C13.875 71.875 11.375 69.5625 15.5625 69.5C19.5 69.4375 22.3125 73.125 23.25 74.625C27.75 82.1875 34.9375 80.0625 37.8125 78.75C38.25 75.5 39.5625 73.3125 41 72.0625C29.875 70.8125 18.25 66.5 18.25 47.375C18.25 41.9375 20.1875 37.4375 23.375 33.9375C22.875 32.6875 21.125 27.5625 23.875 20.6875C23.875 20.6875 28.0625 19.375 37.625 25.8125C41.625 24.6875 45.875 24.125 50.125 24.125C54.375 24.125 58.625 24.6875 62.625 25.8125C72.1875 19.3125 76.375 20.6875 76.375 20.6875C79.125 27.5625 77.375 32.6875 76.875 33.9375C80.0625 37.4375 82 41.875 82 47.375C82 66.5625 70.3125 70.8125 59.1875 72.0625C61 73.625 62.5625 76.625 62.5625 81.3125C62.5625 88 62.5 93.375 62.5 95.0625C62.5 96.375 63.4375 97.9375 65.9375 97.4375C75.8639 94.0874 84.4896 87.7084 90.6002 79.1985C96.7107 70.6886 99.9983 60.4765 100 50C100 22.375 77.625 0 50 0Z" fill="#17A68C"/>
</svg>

<svg xmlns="http://www.w3.org/2000/svg" width="100" height="98" fill="none" xmlns:v="https://vecta.io/nano"><path d="M50 0C22.375 0 0 22.375 0 50c0 22.125 14.313 40.813 34.188 47.438 2.5.438 3.438-1.062 3.438-2.375l-.062-9.312C25 88.063 21.75 82.688 20.75 79.875c-.562-1.437-3-5.875-5.125-7.062-1.75-.937-4.25-3.25-.062-3.312 3.938-.062 6.75 3.625 7.688 5.125 4.5 7.563 11.688 5.438 14.563 4.125.438-3.25 1.75-5.437 3.188-6.687-11.125-1.25-22.75-5.562-22.75-24.687 0-5.437 1.938-9.937 5.125-13.437-.5-1.25-2.25-6.375.5-13.25 0 0 4.188-1.312 13.75 5.125 4-1.125 8.25-1.687 12.5-1.687s8.5.563 12.5 1.688c9.563-6.5 13.75-5.125 13.75-5.125 2.75 6.875 1 12 .5 13.25C80.063 37.438 82 41.875 82 47.375c0 19.188-11.687 23.438-22.812 24.688 1.813 1.563 3.375 4.563 3.375 9.25l-.062 13.75c0 1.313.938 2.875 3.438 2.375 9.926-3.35 18.552-9.729 24.663-18.239S99.998 60.477 100 50c0-27.625-22.375-50-50-50z" fill="#17a68c"/></svg>
